frontend/public/svg/arrows/arrow-square-up.svg

<svg width="153" height="149" viewBox="0 0 153 149" fill="none" xmlns="http://www.w3.org/2000/svg">
<path d="M151.785 94.9966C151.601 90.5775 151.407 84.3292 151.202 77.7146C150.889 67.5985 150.533 56.1323 150.14 49.2565C149.747 42.3321 149.182 33.2182 148.323 24.1187C147.086 11.0083 136.534 1.51898 122.664 1.04183C112.316 0.686091 101.793 0.537174 91.6095 0.392779H91.5097C88.6009 0.35143 85.644 0.377644 82.7804 0.401272C78.0817 0.441309 73.2209 0.481995 68.4598 0.230618C57.6808 -0.33974 46.2572 0.137439 31.4168 1.77828C21.8139 2.83958 14.5915 5.65917 8.68579 10.6506C3.84989 14.7396 1.49303 19.4764 1.48122 25.1314C1.47662 27.0039 1.43918 28.8837 1.36961 30.7168C1.30857 32.3505 1.19701 34.0176 1.08871 35.6295C0.785317 39.059 0.703512 42.5045 0.843866 45.9446C1.58356 57.6385 2.74725 83.2783 1.84872 96.6138C1.5304 101.344 1.61769 106.175 1.7017 110.846L1.72013 111.896C1.74379 119.206 2.95112 126.463 5.29522 133.387C7.71317 140.286 12.4047 144.479 19.2398 145.853C23.5214 146.744 27.8667 147.294 32.2352 147.499C40.3974 147.832 48.6995 148.017 56.7298 148.197C59.9878 148.269 63.2461 148.345 66.5046 148.424L66.8282 148.331L69.6353 148.322H75.8705L79.2953 148.328C92.7936 148.352 106.758 148.382 120.379 146.248C125.119 145.505 130.656 144.468 135.779 142.409C145.997 138.303 151.511 130.732 152.168 119.907C152.594 112.885 152.271 105.812 151.959 98.9701C151.899 97.6448 151.841 96.3202 151.785 94.9966ZM10.0438 87.3175L10.0011 85.4719C9.79961 76.6605 9.3796 58.3257 8.87816 50.6078C8.38262 42.9943 8.08132 32.9524 10.1619 22.8185L10.1823 22.7443C10.2192 22.6406 10.2352 22.5306 10.2295 22.4207C9.73137 16.5268 13.8834 14.25 18.2789 11.838L18.4278 11.7559C22.654 9.43711 27.312 8.63375 31.7213 8.00957C41.7131 6.69618 51.785 6.08755 61.8623 6.18821C66.0563 6.18821 70.1913 6.25776 74.2461 6.34308C81.6063 6.49732 89.0905 6.59774 96.328 6.69553C102.669 6.78085 109.225 6.8688 115.672 6.99285C118.668 7.02955 121.658 7.28534 124.617 7.75815C135.356 9.54733 141.294 16.5256 141.791 27.9386C142.153 36.2413 142.488 47.8518 142.812 59.0798C143.112 69.4749 143.422 80.2238 143.745 87.9837C143.847 90.4449 143.989 92.9449 144.124 95.3628C144.338 99.1558 144.558 103.079 144.636 106.937C144.73 111.504 144.476 116.181 144.209 120.581C143.812 127.109 140.025 131.739 132.952 134.35C128.675 135.852 124.254 136.907 119.76 137.5C104.668 139.752 89.1883 139.65 74.2225 139.554L72.2456 139.541C71.4711 139.536 70.6966 139.537 69.9215 139.541H68.4959L68.49 139.798C65.1646 139.711 61.8392 139.628 58.5137 139.55C48.9312 139.313 39.0204 139.07 29.281 138.75C26.755 138.597 24.2446 138.249 21.7726 137.707L21.3367 137.624C17.1092 136.816 14.2811 134.207 12.9356 129.87C10.9322 123.24 9.92962 116.347 9.96105 109.42C9.93939 106.267 9.98409 103.054 10.0267 99.9533C10.0819 95.8098 10.1376 91.5278 10.0412 87.3161L10.0438 87.3175Z" fill="black"/>
<path d="M49.1948 59.3617C50.2465 58.7887 51.2362 58.1086 52.1483 57.3323C52.3622 57.163 52.5769 56.993 52.7915 56.8269C55.9073 54.4103 59.0212 51.9913 62.1332 49.5699C65.8161 46.7073 69.5003 43.847 73.1859 40.9888C73.5105 40.7554 73.8541 40.5495 74.213 40.3732C74.2957 40.3299 74.3811 40.2846 74.4703 40.236C74.3938 41.802 74.316 43.3434 74.2373 44.86C74.045 48.6175 73.8632 52.1657 73.7254 55.7644C73.4333 63.4146 73.1497 74.5907 72.8721 85.3993C72.6371 94.6786 72.4127 103.443 72.1921 109.881C72.16 111.144 72.2492 112.408 72.4586 113.654C72.7618 115.557 73.7404 116.522 75.3682 116.522C77.1869 116.522 78.2889 115.442 78.4707 113.487C78.5206 112.946 78.5738 112.404 78.6269 111.862C78.8435 109.646 79.0686 107.355 79.0975 105.093C79.2143 96.0556 79.3062 83.2643 79.3948 70.8943C79.4604 61.3117 79.526 52.2621 79.6009 45.3266C79.6196 44.8207 79.6705 44.3165 79.7532 43.817C79.768 43.7077 79.7838 43.5948 79.8004 43.4784L80.2598 43.9043C80.798 44.3998 81.2444 44.81 81.6716 45.238C87.775 51.2309 94.7717 56.24 102.412 60.0863L102.646 60.2091C103.308 60.5895 104.013 60.8894 104.746 61.1023C105.181 61.1741 105.627 61.1439 106.048 61.0143C106.218 60.9776 106.387 60.9396 106.552 60.9166L106.897 60.87L106.832 60.528C106.797 60.3283 106.773 60.127 106.758 59.9249C106.77 59.4091 106.621 58.9024 106.332 58.475C105.885 58.0018 105.39 57.5765 104.855 57.2063C104.451 56.9201 104.066 56.6072 103.704 56.2697C100.886 53.5131 98.0744 50.7521 95.2684 47.9867C91.6454 44.421 88.0156 40.862 84.379 37.3094C82.8573 35.7274 81.1817 34.3009 79.3771 33.0511C76.6093 31.2678 74.3082 31.5415 71.6795 33.9575C69.1553 36.2796 66.421 38.7113 63.3204 41.3918C61.064 43.3429 58.7989 45.2848 56.5254 47.2175C54.0628 49.3177 51.6052 51.4262 49.1527 53.5427C48.1671 54.351 47.3049 55.2989 46.593 56.3564C46.1992 56.9904 46.1461 58.3582 46.6377 58.8885C46.9868 59.1815 47.4058 59.379 47.8539 59.4619C48.302 59.5449 48.7639 59.5103 49.1948 59.3617Z" fill="black"/>
</svg>

<svg xmlns="http://www.w3.org/2000/svg" width="153" height="149" fill="none" viewBox="0 0 153 149"><path fill="#000" d="M151.785 94.997c-.184-4.42-.378-10.668-.583-17.282-.313-10.117-.669-21.583-1.062-28.458-.393-6.925-.958-16.039-1.817-25.138-1.237-13.11-11.789-22.6-25.659-23.077-10.348-.356-20.871-.505-31.055-.65h-.1c-2.908-.04-5.865-.014-8.729.01-4.698.04-9.56.08-14.32-.171C57.68-.34 46.257.137 31.417 1.778 21.814 2.84 14.592 5.66 8.686 10.651 3.85 14.74 1.493 19.476 1.48 25.13a158 158 0 0 1-.111 5.586c-.061 1.633-.173 3.3-.281 4.913a80 80 0 0 0-.245 10.315c.74 11.694 1.903 37.333 1.005 50.669-.319 4.73-.231 9.561-.147 14.232l.018 1.05a67.7 67.7 0 0 0 3.575 21.491c2.418 6.899 7.11 11.092 13.945 12.466a83 83 0 0 0 12.995 1.646c8.162.333 16.465.518 24.495.698q4.887.108 9.775.227l.323-.093 2.807-.009h6.236l3.424.006c13.499.024 27.463.054 41.084-2.08 4.74-.743 10.277-1.78 15.4-3.839 10.218-4.106 15.732-11.677 16.389-22.502.426-7.022.103-14.095-.209-20.937q-.09-1.988-.174-3.973m-141.741-7.68L10 85.473c-.2-8.813-.62-27.147-1.122-34.865-.495-7.614-.797-17.656 1.284-27.79l.02-.074a.8.8 0 0 0 .047-.323c-.498-5.894 3.654-8.171 8.05-10.583l.149-.082c4.226-2.319 8.884-3.122 13.293-3.746a215 215 0 0 1 30.141-1.822c4.194 0 8.33.07 12.384.155 7.36.154 14.845.255 22.082.353 6.341.085 12.897.173 19.344.297a61.5 61.5 0 0 1 8.945.765c10.739 1.79 16.677 8.768 17.174 20.18.362 8.303.697 19.914 1.021 31.142.3 10.395.61 21.144.933 28.904.102 2.46.244 4.96.379 7.379.214 3.793.434 7.716.512 11.574.094 4.567-.16 9.244-.427 13.644-.397 6.528-4.184 11.158-11.257 13.769a65.8 65.8 0 0 1-13.192 3.15c-15.092 2.252-30.572 2.15-45.538 2.054l-1.976-.013q-1.162-.007-2.325 0h-1.425l-.006.257q-4.987-.13-9.976-.248c-9.583-.237-19.494-.48-29.233-.8a49 49 0 0 1-7.508-1.043l-.436-.083c-4.228-.808-7.056-3.417-8.401-7.754a69.6 69.6 0 0 1-2.975-20.45c-.022-3.153.023-6.366.066-9.467.055-4.143.11-8.425.014-12.637z"/><path fill="#000" d="M49.195 59.362a17.4 17.4 0 0 0 2.953-2.03q.321-.255.643-.505 4.674-3.625 9.342-7.257 5.524-4.294 11.053-8.581.487-.352 1.027-.616.124-.064.257-.137-.114 2.349-.233 4.624c-.192 3.758-.374 7.306-.512 10.904-.292 7.65-.575 18.827-.853 29.635-.235 9.28-.46 18.044-.68 24.482a19.7 19.7 0 0 0 .267 3.773c.303 1.903 1.281 2.868 2.91 2.868 1.818 0 2.92-1.08 3.102-3.035q.076-.812.156-1.625c.217-2.216.442-4.507.47-6.769.117-9.037.21-21.829.298-34.199.065-9.582.131-18.632.206-25.567q.029-.76.152-1.51l.047-.339.46.426c.538.496.984.906 1.412 1.334a82.6 82.6 0 0 0 20.74 14.848l.234.123a9.6 9.6 0 0 0 2.1.893 2.85 2.85 0 0 0 1.302-.088c.17-.036.339-.074.504-.097l.345-.047-.065-.342a6 6 0 0 1-.074-.603 2.5 2.5 0 0 0-.426-1.45 9.4 9.4 0 0 0-1.477-1.269q-.607-.43-1.151-.936-4.227-4.135-8.436-8.283A4107 4107 0 0 0 84.38 37.309a33 33 0 0 0-5.002-4.258c-2.768-1.783-5.069-1.51-7.697.907a361 361 0 0 1-8.36 7.434 1064 1064 0 0 1-6.795 5.825q-3.694 3.151-7.372 6.326a13.1 13.1 0 0 0-2.56 2.813c-.394.634-.447 2.002.045 2.532a2.64 2.64 0 0 0 2.557.474"/></svg>
